X:1
T:Ahi possanza d'amor
T:Madalena Casulana
T:Source : Secondo libro de madrigali a quattro voci---Venetia---G.Scotto---1570. Editor : André Vierendeels (27/08/17).
T:Ahi possanza d'amor
T:©
T:©
T:©
T:©
C:Madalena Casulana
Z:©
%%score [ 1 2 3 4 ]
L:1/8
Q:1/4=120
M:2/2
K:C
V:1 treble nm="Soprano 1" snm="S 1"
V:2 treble nm="Soprano 2" snm="S 2"
V:3 treble nm="Tenor 1" snm="T 1"
V:4 treble-8 nm="Tenor 2" snm="T 2"
V:1
 _B8- | B4 A4 | A8 | c8- | c4 B4 | A4 A4 | B2 A4 G2 | A8 | z8 | z2 F4 F2 | A4 G2 A2 | F2 c2 c2 A2 | %12
w: Ahi|_ pos-|san-|za|_ d'a-|mor com'|in un tem-|po,||e spe-|ranz' e ti-|mor al cor mi|
 _B4 A2 ^F2 | G4 G4- | G2 G2 G4 | A8 | F8 | E2 ed cB A2- | A2 ^G^F G4 | A2 ^F2 F2 F2 | ^G8 | %21
w: por- gi, io|pur chie-|* gio per|lei|mort'|e vi- * * * *||ta, ard' et a-|giac-|
 A4 z2 E2 | E4 E4 | z4 z2 B2 | B2 B2 d4 | d2 c2 c4 | B2 A4 G2 | F4 A4 | _B8- | B4 A4 | A8 | %31
w: cio, e|tac- cio|e|for- te gri-|do, ahi- ta|al mio pe-|rir poi|mor-|* te|chie-|
 ^F4 A4 | c4 c4- | c2 d2 B4 | c4 z2 e2 | c2 A2 B4 | A8- | A8 | z4 A4 | c4 c4- | c2 d2 B4 | %41
w: gio, co-|si ser-|* vo d'al-|trui, fe-|lic' a spet-|to,|_|co-|si ser-|* vo d'al-|
 c4 z2 e2 | c2 A2 B4 | A8- | A8- | A8 |] %46
w: trui, fe-|lic' a spet-|to.|_||
V:2
 z8 | F8- | F4 E4 | A8 | G4 G4 | E4 z2 F2 | G2 C2 D4 | E8 | z8 | z2 D4 D2 | F4 E2 F2 | %11
w: |Ahi|_ pos-|san-|za d'a-|mor com'|in un tem-|po,||e spe-|ranz' e ti-|
 D2 A2 G2 ^F2 | G4 E2 D2 | D4 D4- | D2 D2 E4 | F8 | C8- | C4 E4 | E8 | E2 B2 B2 B2 | B8 | %21
w: mor al cor mi|por- gi, io|pur chie-|* gio per|lei|mort'|_ e|vi-|ta, ard' et a-|giac-|
"^-natural" E4 z2 C2 | B,4 B,4 |"^-natural" z4 z2 G2 | G2 G2 A4 | A2 A2 G4 | G2 E4 E2 | C4 F4 | %28
w: cio, e|tac- cio|e|for- te gri-|do, ahi- ta|al mio pe-|rir poi|
 F8- | F4 F4 | E8 | A4 ^F4 | G4 A4- | A2 A2 G4 | G4 G4 | A2 A4 ^G2 | A2 E2 F2 F2 | E8 | %38
w: mor-|* te|chie-|gio, co-|si ser-|* vo d'al-|trui, fe-|lic' a spet-|to, fe- lic' a|spet-|
"^-natural" ^F4 F4 | G4 A4- | A2 A2 G4 | G4 G4 | A2 A4 ^G2 | A2 E2 F2 F2 | E8 | ^F8 |] %46
w: to, co-|si ser-|* vo d'al-|trui, fe-|lic' a spet-|to, fe- lic' a|spet-|to.|
V:3
 z8 | d8- | d4 c4 | f4 e4- | e4 d4 | ^c4 z2 d2 | d2 f2 f2 ed | ^c2 c4 c2 | e4 d2 e2 | %9
w: |Ahi|_ pos-|san- za|_ d'a-|mor com'|in un tem- * *|po, e spe-|ranz' e ti-|
 c2 A2 _B2 B2 | F4 c4 | z2 f2 e2 d2 | d4 c2 A2 | B4 B4- | B2 B2 c4 | c8 | A8- | A4 c4 | B8 | %19
w: mor al cor mi|por- gi,|al cor mi|por- gi, io|pur chie-|* gio per|lei|mort'|_ e|vi-|
 ^c2 ^d2 d2 d2 | e8 | ^c4 z2 A2 | ^G4 G4 | z4 z2 d2 | d2 d2 f4 | f2 e2 e4 | d2 c4 B2 | A4 c4 | %28
w: ta, ard' et a-|giac-|cio, e|tac- cio|e|for- te gri-|do, ahi- ta|al mio pe-|rir poi|
 d8- | d4 c4 | ^c8 | d4 z2 d2 | e4 f4- | f2 f2 d4 | e4 c4 | f4 e2 e2 | c4 A2 d2- | d2 ^cB c4 | %38
w: mor-|* te|chie-|gio, co-|si ser-|* vo d'al-|trui, fe-|li- ce, fe-|lic' a spet-||
 d4 z2 d2 | e4 f4- | f2 f2 d4 | e4 c4 | f4 e2 e2 | c4 A2 d2- | d2 ^cB c4 | d8 |] %46
w: to, co-|si ser-|* vo d'al-|trui, fe-|li- ce, fe-|lic' a spet-||to.|
V:4
 z8 | z4 D4- | D4 A4 | A8 | c4 G4 | A4 z2 D2 | G2 F2 _B4 | A2 A4 A2 |"^-natural" c4 B2 c2 | %9
w: |Ahi|_ pos-|san-|za d'a-|mor com'|in un tem-|po, e spe-|ranz' e ti-|
 A2 D2 d2 d2 | c6 F2 | z2 A2 c2 d2 | G4 A2 D2 | G4 G4- | G2 G2 C4 | F8 | F8 | A8 | E8 | %19
w: mor al cor mi|por- gi,|al cor mi|por- gi, io|pur chie-|* gio per|lei|mort'|e|vi-|
 A2 B2 B2 B2 | E8 | A4 z2 A2 | E4 E4 | z4 z2 G2 | G2 G2 d4 | d2 A2 c4 | G2 A4 E2 | F4 F4 | _B8- | %29
w: ta, atd' et a-|giac-|cio, e|tac- cio|e|for- te gri-|do, ahi- ta|al mio pe-|rir poi|mor-|
 B4 F4 | A8 | D4 d4 | c4 F4- | F2 D2 G4 | C8 | z8 | z2 A2 F2 D2 | A8 | D4 d4 | c4 F4- | F2 D2 G4 | %41
w: * te|chie-|gio, co-|si ser-|* vo d'al-|trui,||fe- lic' a|spet-|to, co-|si ser-|* vo d'al-|
 C8 | z8 | z2 A2 F2 D2 | A8 | D8 |] %46
w: trui,||fe- lic' a|spet-|to.|

